X:1
T:79th's Farewell to Gibraltar, The
T:79th's Farewell to Gibraltar, The
T:Pipe Major John MacDonald, 1848
C:Pipe Major John MacDonald, 1848
L:1/8
M:2/4
K:D
V:1 treble 
V:1
 c/d/ | e>f e>c | A2 A3/2a3/2 | f>e c/ e/f/e/d/ | cB Bc/d/ | e>f ec | A2 Aa | fe/c/ e/f/a/e/ | %8
 cA A :: a | fe/c/ e/f/a/e/ | f/a/e/c/4B<Ba | fe/c/ e/f/a/e/ | fB Ba | fe/c/ e/f/a/e/ | %15
 f/a/e/c/ B<Ba | fe/c/ e/f/a/e/ | cA A :: c/B/ | A>B ca | fe/c/ B/<B/c/B/ | A/B/c/d/ e/f/e/c/ | %22
 fB Bc/B/ | A>B ca | fe/c/ B<Ba | fe/c/ e/f/a/e/ | cA A :: c/d/ | e>f ec | e>d ea | f>e fa | %31
 f>e ca | fe/c/ cB/A/ | B/A/B/c/ ea | fe/c/ e/f/a/e/ | cA A :| %36

